src/main/resources/icons/components/textField.svg

<svg xmlns="http://www.w3.org/2000/svg" width="16" height="16"><rect width="13" height="9" x="1.5" y="3.5" fill="none" stroke="#6C707E" clip-path="url(#a)" rx="2"/><path stroke="#6C707E" d="M3 5.5h5M5.5 11V5.5"/><path fill="#6C707E" d="M8 1h2v1H8zm3 0h2v1h-2zm-1 1h1v12h-1zM8 14h2v1H8zm3 0h2v1h-2z"/><clipPath id="a"><path d="M0 0h9v16H0zm12 0h4v16h-4z"/></clipPath></svg>

<svg xmlns="http://www.w3.org/2000/svg" width="16" height="16" viewBox="0 0 16 16">
    <rect x="1.5" y="3.5" width="13" height="9" fill="none" rx="2" stroke="#6C707E" clip-path="url(#boxClip)"/>
    <line x1="3" y1="5.5" x2="8" y2="5.5" stroke="#6C707E"/>
    <line x1="5.5" y1="11" x2="5.5" y2="5.5" stroke="#6C707E"/>
    <path fill="#6C707E"
          d="M8,1 L10,1 L10,2 L8,2 L8,1 Z M11,1 L13,1 L13,2 L11,2 L11,1 Z M10,2 L11,2 L11,14 L10,14 L10,2 Z M8,14 L10,14 L10,15 L8,15 L8,14 Z M11,14 L13,14 L13,15 L11,15 L11,14 Z"/>
  <clipPath id="boxClip">
    <rect x="0" y="0" width="9" height="16"/>
    <rect x="12" y="0" width="4" height="16"/>
  </clipPath>
</svg>
